svgs/thin/arrow-down-triangle-square.svg

<svg xmlns="http://www.w3.org/2000/svg" viewBox="0 0 512 512"><!--! Font Awesome Pro 6.3.0 by @fontawesome - https://fontawesome.com License - https://fontawesome.com/license (Commercial License) Copyright 2023 Fonticons, Inc. --><path d="M432 288l-128 .0107c-17.67 0-32 14.33-32 32V448c0 17.67 14.33 32 32 32l128-.0098c17.67 0 32-14.32 32-31.99v-127.1C464 302.3 449.7 288 432 288zM448 448c0 8.822-7.178 16-16 16h-128c-8.822 0-16-7.178-16-16v-127.1c0-8.822 7.178-15.1 16-15.1h128c8.822 0 16 7.178 16 16V448zM476.1 182.9L393 45.78C387.4 36.59 377.8 32 368.1 32s-19.38 4.594-24.94 13.78l-83.25 137.1c-11 18.25 2.75 41.12 25 41.12h166.3C473.4 224 487.1 201.1 476.1 182.9zM462.6 201.7c-2.232 3.951-6.518 6.311-11.46 6.311h-166.3c-4.945 0-9.229-2.359-11.46-6.309c-1.119-1.982-2.588-5.99 .1367-10.51l83.26-137.1C360.1 48.59 365.8 48 368.1 48c2.279 0 7.936 .5918 11.26 6.074l83.11 137.1C465.2 195.7 463.7 199.7 462.6 201.7zM210.1 370.7L136 451.5V40c0-4.408-3.594-8.002-8-8.002S120 35.59 120 40v411.5l-74.1-80.85c-1.596-1.719-3.752-2.594-5.908-2.594c-1.938 0-3.875 .6875-5.406 2.094c-3.25 3.002-3.469 8.064-.5 11.32l88 96.02c3.062 3.312 8.75 3.312 11.81 0l88-96.02c2.969-3.252 2.75-8.314-.5-11.32C218.2 367.2 213.1 367.4 210.1 370.7z"/></svg>

<svg xmlns="http://www.w3.org/2000/svg" viewBox="0 0 512 512"><!-- Font Awesome Pro 6.0.0-alpha2 by @fontawesome - https://fontawesome.com License - https://fontawesome.com/license (Commercial License) --><path d="M432.008 288.014H304.006C286.332 288.014 272.006 302.34 272.006 320.014V448C272.006 465.674 286.332 480 304.006 480H432.008C449.68 480 464.008 465.674 464.008 448V320.014C464.008 302.34 449.68 288.014 432.008 288.014ZM448.008 448C448.008 456.822 440.83 464 432.008 464H304.006C295.184 464 288.006 456.822 288.006 448V320.014C288.006 311.191 295.184 304.014 304.006 304.014H432.008C440.83 304.014 448.008 311.191 448.008 320.014V448ZM476.133 182.895L393.006 45.779C387.443 36.594 377.756 32 368.068 32S348.693 36.594 343.131 45.779L259.881 182.895C248.881 201.145 262.631 224.018 284.881 224.018H451.133C473.383 224.018 487.133 201.145 476.133 182.895ZM462.594 201.707C460.361 205.658 456.076 208.018 451.133 208.018H284.881C279.936 208.018 275.652 205.658 273.42 201.709C272.301 199.727 270.832 195.719 273.557 191.199L356.818 54.066C360.133 48.592 365.791 48 368.068 48C370.348 48 376.004 48.592 379.324 54.074L462.43 191.156C465.18 195.719 463.713 199.727 462.594 201.707ZM210.098 370.676L136 451.529V40.002C136 35.594 132.406 32 128 32S120 35.594 120 40.002V451.529L45.904 370.676C44.309 368.957 42.152 368.082 39.996 368.082C38.059 368.082 36.121 368.77 34.59 370.176C31.34 373.178 31.121 378.24 34.09 381.492L122.094 477.516C125.156 480.828 130.844 480.828 133.906 477.516L221.91 381.492C224.879 378.24 224.66 373.178 221.41 370.176C218.16 367.176 213.098 367.395 210.098 370.676Z"/></svg>
